SVG_Azure_Grouped/Dynamics 365/Mixed Reality Voice Assistant.svg

<?xml version="1.0" encoding="UTF-8" standalone="no"?>
<!-- Generated by Microsoft Visio, SVG Export Mixed Reality Voice Assistant.svg Page-1 -->

<svg
   xmlns:dc="http://purl.org/dc/elements/1.1/"
   xmlns:cc="http://creativecommons.org/ns#"
   xmlns:rdf="http://www.w3.org/1999/02/22-rdf-syntax-ns#"
   xmlns:svg="http://www.w3.org/2000/svg"
   xmlns="http://www.w3.org/2000/svg"
   xmlns:sodipodi="http://sodipodi.sourceforge.net/DTD/sodipodi-0.dtd"
   xmlns:inkscape="http://www.inkscape.org/namespaces/inkscape"
   width="0.70860922in"
   height="0.78334939in"
   viewBox="0 0 51.019877 56.401308"
   xml:space="preserve"
   class="st4"
   version="1.1"
   id="svg42"
   sodipodi:docname="Mixed Reality Voice Assistant.svg"
   style="font-size:12px;overflow:visible;color-interpolation-filters:sRGB;fill:none;fill-rule:evenodd;stroke-linecap:square;stroke-miterlimit:3"
   inkscape:version="0.92.5 (2060ec1f9f, 2020-04-08)"><metadata
   id="metadata46"><rdf:RDF><cc:Work
       rdf:about=""><dc:format>image/svg+xml</dc:format><dc:type
         rdf:resource="http://purl.org/dc/dcmitype/StillImage" /></cc:Work></rdf:RDF></metadata><sodipodi:namedview
   pagecolor="#ffffff"
   bordercolor="#666666"
   borderopacity="1"
   objecttolerance="10"
   gridtolerance="10"
   guidetolerance="10"
   inkscape:pageopacity="0"
   inkscape:pageshadow="2"
   inkscape:window-width="640"
   inkscape:window-height="480"
   id="namedview44"
   showgrid="false"
   inkscape:zoom="1.824813"
   inkscape:cx="34.015656"
   inkscape:cy="18.916426"
   inkscape:window-x="0"
   inkscape:window-y="0"
   inkscape:window-maximized="0"
   inkscape:current-layer="svg42" />
	<style
   type="text/css"
   id="style2">
	<![CDATA[
		.st1 {fill:url(#grad0-5);stroke:none;stroke-linecap:butt;stroke-width:6.28779}
		.st2 {fill:url(#grad0-9);stroke:none;stroke-linecap:butt;stroke-width:6.28779}
		.st3 {fill:url(#grad0-13);stroke:none;stroke-linecap:butt;stroke-width:6.28779}
		.st4 {fill:none;fill-rule:evenodd;font-size:12px;overflow:visible;stroke-linecap:square;stroke-miterlimit:3}
	]]>
	</style>

	<defs
   id="Patterns_And_Gradients">
		<linearGradient
   id="grad0-5"
   x1="0"
   y1="38.329283"
   x2="53.643216"
   y2="38.329283"
   gradientTransform="scale(0.95109883,1.0514154)"
   gradientUnits="userSpaceOnUse">
			<stop
   offset="0"
   stop-color="#0078d4"
   stop-opacity="1"
   id="stop4" />
			<stop
   offset="1"
   stop-color="#2064ae"
   stop-opacity="1"
   id="stop6" />
		</linearGradient>
		<linearGradient
   id="grad0-9"
   x1="0"
   y1="52.020502"
   x2="48.891243"
   y2="52.020502"
   gradientTransform="scale(1.0435407,0.95827602)"
   gradientUnits="userSpaceOnUse">
			<stop
   offset="0"
   stop-color="#00b1f2"
   stop-opacity="1"
   id="stop9" />
			<stop
   offset="0.995"
   stop-color="#0095e6"
   stop-opacity="1"
   id="stop11" />
		</linearGradient>
		<linearGradient
   id="grad0-13"
   x1="0"
   y1="69.030446"
   x2="43.367841"
   y2="69.030446"
   gradientTransform="scale(1.1623244,0.86034501)"
   gradientUnits="userSpaceOnUse">
			<stop
   offset="0"
   stop-color="#7cecff"
   stop-opacity="1"
   id="stop14" />
			<stop
   offset="1"
   stop-color="#00ccf9"
   stop-opacity="1"
   id="stop16" />
		</linearGradient>
	</defs>
	<g
   id="g40"
   transform="translate(-6.2878664,-6.2843)">
		<title
   id="title20">Page-1</title>
		<g
   id="group21086-1"
   transform="translate(6.28779,-34.0157)">
			<title
   id="title22">Mixed Reality Voice Assistant.21086</title>
			<g
   id="shape21087-2">
				<title
   id="title24">path5</title>
				<path
   d="M 25.51,40.3 51.02,54.62 V 73.7 L 26.74,87.33 c -0.76,0.43 -1.23,1.22 -1.23,2.07 v 6.11 c 0,0.91 -1.01,1.49 -1.82,1.03 L 0,83.25 V 54.62 Z"
   class="st1"
   id="path26"
   inkscape:connector-curvature="0"
   style="fill:url(#grad0-5);stroke:none;stroke-width:6.28778982;stroke-linecap:butt" />
			</g>
			<g
   id="shape21088-6"
   transform="translate(0,-9.54306)">
				<title
   id="title29">path15</title>
				<path
   d="m 25.51,49.85 25.51,14.31 v 8.16 c 0,0.86 -0.46,1.65 -1.22,2.07 L 26.74,87.33 c -0.76,0.43 -1.23,1.22 -1.23,2.07 v 6.11 c 0,0.91 -1.01,1.49 -1.82,1.03 L 1.22,83.93 C 0.47,83.51 0,82.72 0,81.86 v -17.7 z"
   class="st2"
   id="path31"
   inkscape:connector-curvature="0"
   style="fill:url(#grad0-9);stroke:none;stroke-width:6.28778982;stroke-linecap:butt" />
			</g>
			<g
   id="shape21089-10"
   transform="translate(0,-19.0861)">
				<title
   id="title34">path17</title>
				<path
   d="m 25.51,59.39 24.59,13.8 c 0.41,0.23 0.41,0.8 0,1.03 L 26.74,87.33 c -0.76,0.43 -1.23,1.22 -1.23,2.07 v 6.11 c 0,0.91 -1.01,1.49 -1.82,1.03 L 1.22,83.93 C 0.47,83.51 0,82.72 0,81.86 V 73.7 Z"
   class="st3"
   id="path36"
   inkscape:connector-curvature="0"
   style="fill:url(#grad0-13);stroke:none;stroke-width:6.28778982;stroke-linecap:butt" />
			</g>
		</g>
	</g>
</svg>

<?xml version="1.0" encoding="UTF-8" standalone="no"?>
<!DOCTYPE svg PUBLIC "-//W3C//DTD SVG 1.1//EN" "http://www.w3.org/Graphics/SVG/1.1/DTD/svg11.dtd">
<!-- Generated by Microsoft Visio, SVG Export Mixed Reality Voice Assistant.svg Page-1 -->
<svg xmlns="http://www.w3.org/2000/svg" xmlns:xlink="http://www.w3.org/1999/xlink" xmlns:ev="http://www.w3.org/2001/xml-events"
		width="0.883322in" height="1.34717in" viewBox="0 0 63.5992 96.9965" xml:space="preserve" color-interpolation-filters="sRGB"
		class="st4">
	<style type="text/css">
	<![CDATA[
		.st1 {fill:url(#grad0-5);stroke:none;stroke-linecap:butt;stroke-width:6.28779}
		.st2 {fill:url(#grad0-9);stroke:none;stroke-linecap:butt;stroke-width:6.28779}
		.st3 {fill:url(#grad0-13);stroke:none;stroke-linecap:butt;stroke-width:6.28779}
		.st4 {fill:none;fill-rule:evenodd;font-size:12px;overflow:visible;stroke-linecap:square;stroke-miterlimit:3}
	]]>
	</style>

	<defs id="Patterns_And_Gradients">
		<linearGradient id="grad0-5" x1="0" y1="0" x2="1" y2="0" gradientTransform="rotate(64.635301322492 0.5 0.5)">
			<stop offset="0" stop-color="#0078d4" stop-opacity="1"/>
			<stop offset="1" stop-color="#2064ae" stop-opacity="1"/>
		</linearGradient>
		<linearGradient id="grad0-9" x1="0" y1="0" x2="1" y2="0" gradientTransform="rotate(68.248481004702 0.5 0.5)">
			<stop offset="0" stop-color="#00b1f2" stop-opacity="1"/>
			<stop offset="0.995" stop-color="#0095e6" stop-opacity="1"/>
		</linearGradient>
		<linearGradient id="grad0-13" x1="0" y1="0" x2="1" y2="0" gradientTransform="rotate(69.594331324328 0.5 0.5)">
			<stop offset="0" stop-color="#7cecff" stop-opacity="1"/>
			<stop offset="1" stop-color="#00ccf9" stop-opacity="1"/>
		</linearGradient>
	</defs>
	<g>
		<title>Page-1</title>
		<g id="group20611-1" transform="translate(6.28779,-34.0157)">
			<title>Mixed Reality Voice Assistant.20611</title>
			<g id="shape20612-2">
				<title>path5</title>
				<path d="M25.51 40.3 L51.02 54.62 L51.02 73.7 L26.74 87.33 C25.98 87.76 25.51 88.55 25.51 89.4 L25.51 95.51 C25.51
							 96.42 24.5 97 23.69 96.54 L0 83.25 L0 54.62 L25.51 40.3 Z" class="st1"/>
			</g>
			<g id="shape20613-6" transform="translate(0,-9.54306)">
				<title>path15</title>
				<path d="M25.51 49.85 L51.02 64.16 L51.02 72.32 C51.02 73.18 50.56 73.97 49.8 74.39 L26.74 87.33 C25.98 87.76 25.51
							 88.55 25.51 89.4 L25.51 95.51 C25.51 96.42 24.5 97 23.69 96.54 L1.22 83.93 C0.47 83.51 0 82.72 0 81.86
							 L0 64.16 L25.51 49.85 Z" class="st2"/>
			</g>
			<g id="shape20614-10" transform="translate(2.51799E-13,-19.0861)">
				<title>path17</title>
				<path d="M25.51 59.39 L50.1 73.19 C50.51 73.42 50.51 73.99 50.1 74.22 L26.74 87.33 C25.98 87.76 25.51 88.55 25.51
							 89.4 L25.51 95.51 C25.51 96.42 24.5 97 23.69 96.54 L1.22 83.93 C0.47 83.51 0 82.72 0 81.86 L0 73.7 L25.51
							 59.39 Z" class="st3"/>
			</g>
		</g>
	</g>
</svg>
